X: 21720
T: King Arthur's Liver
R: polka
M: 2/4
K: Gmajor
G2 DB A>B cA|Bd ef gf e2|c2 Ad BA G2|AB GA F2 D2|
G2 DB A>B cA|Bd ef gf e2|c2 Ad BA G2|AB GA AG GF||
EG B2 B4|Bd BA GB GE|DF A2 A4|AG dc Bc BA|
EG B2 B4|Bd BA GB GE|DF A2 A4|AG dc Bc BA||

